flaticon/transport/car-repair-11.svg

<svg xmlns="http://www.w3.org/2000/svg" width="32" height="32" viewBox="0 0 24 24">
    <path d="M 21.398438 16.800781 L 21.398438 16.398438 C 21.398438 15.867188 21.253906 15.367188 21 14.945312 L 21 2 C 21 1.320312 20.480469 0.800781 19.800781 0.800781 L 14.601562 0.800781 C 14.601562 0.359375 14.238281 0 13.800781 0 L 8.199219 0 C 7.761719 0 7.398438 0.359375 7.398438 0.800781 L 2.199219 0.800781 C 1.519531 0.800781 1 1.320312 1 2 L 1 22.800781 C 1 23.480469 1.519531 24 2.199219 24 L 23 24 L 23 16.800781 Z M 14.601562 16.800781 L 14.199219 16.800781 L 14.199219 21.601562 L 3.398438 21.601562 L 3.398438 3.199219 L 7.398438 3.199219 C 7.398438 3.640625 7.761719 4 8.199219 4 L 13.800781 4 C 14.238281 4 14.601562 3.640625 14.601562 3.199219 L 18.601562 3.199219 L 18.601562 13.601562 C 17.039062 13.601562 15.800781 14.839844 15.800781 16.398438 L 15.800781 16.800781 Z M 16.601562 16.398438 C 16.601562 15.28125 17.480469 14.398438 18.601562 14.398438 C 18.640625 14.398438 18.675781 14.402344 18.714844 14.402344 C 18.730469 14.402344 18.742188 14.40625 18.753906 14.40625 C 18.769531 14.40625 18.785156 14.410156 18.800781 14.410156 C 18.839844 14.417969 18.875 14.425781 18.921875 14.441406 C 18.96875 14.457031 19.015625 14.457031 19.058594 14.453125 C 19.546875 14.566406 19.972656 14.859375 20.28125 15.320312 C 20.296875 15.351562 20.316406 15.378906 20.339844 15.398438 C 20.503906 15.691406 20.601562 16.035156 20.601562 16.398438 L 20.601562 16.800781 L 16.601562 16.800781 Z M 19.800781 1.601562 C 20.039062 1.601562 20.199219 1.761719 20.199219 2 L 20.199219 14.09375 C 20.003906 13.960938 19.792969 13.847656 19.5625 13.765625 C 19.511719 13.746094 19.457031 13.726562 19.398438 13.710938 L 19.398438 3.199219 C 19.398438 2.761719 19.039062 2.398438 18.601562 2.398438 L 14.601562 2.398438 L 14.601562 1.601562 Z M 8.199219 0.800781 L 13.800781 0.800781 L 13.800781 3.199219 L 8.199219 3.199219 Z M 2.199219 23.199219 C 1.960938 23.199219 1.800781 23.039062 1.800781 22.800781 L 1.800781 2 C 1.800781 1.761719 1.960938 1.601562 2.199219 1.601562 L 7.398438 1.601562 L 7.398438 2.398438 L 3.398438 2.398438 C 2.960938 2.398438 2.601562 2.761719 2.601562 3.199219 L 2.601562 21.601562 C 2.601562 22.039062 2.960938 22.398438 3.398438 22.398438 L 14.199219 22.398438 L 14.199219 23.199219 Z M 22.199219 23.199219 L 15 23.199219 L 15 17.601562 L 22.199219 17.601562 Z M 22.199219 23.199219"/>
    <path d="M18.601562 18.398438C17.71875 18.398438 17 19.121094 17 20 17 20.742188 17.511719 21.371094 18.199219 21.550781L18.199219 22C18.199219 22.238281 18.359375 22.398438 18.601562 22.398438 18.839844 22.398438 19 22.238281 19 22L19 21.550781C19.6875 21.371094 20.199219 20.742188 20.199219 20 20.199219 19.121094 19.480469 18.398438 18.601562 18.398438zM18.601562 20.800781C18.160156 20.800781 17.800781 20.441406 17.800781 20 17.800781 19.558594 18.160156 19.199219 18.601562 19.199219 19.039062 19.199219 19.398438 19.558594 19.398438 20 19.398438 20.441406 19.039062 20.800781 18.601562 20.800781zM16.359375 12C16.960938 12 17.398438 11.558594 17.441406 10.960938L17.441406 9.398438C17.441406 8.800781 16.960938 8.359375 16.398438 8.359375L15.546875 8.359375 14 6.199219C13.761719 5.839844 13.359375 5.640625 12.921875 5.640625L11.1875 5.640625C11.132812 5.613281 11.070312 5.601562 11 5.601562 10.929688 5.601562 10.867188 5.613281 10.8125 5.640625L9.078125 5.640625C8.640625 5.640625 8.238281 5.839844 8 6.199219L6.453125 8.359375 5.640625 8.359375C5.039062 8.359375 4.601562 8.839844 4.601562 9.398438L4.601562 10.960938C4.601562 11.558594 5.039062 12 5.640625 12L6.25 12C6.429688 12.6875 7.058594 13.199219 7.800781 13.199219 8.542969 13.199219 9.171875 12.6875 9.347656 12L12.652344 12C12.828125 12.6875 13.457031 13.199219 14.199219 13.199219 14.941406 13.199219 15.570312 12.6875 15.75 12zM13.320312 6.601562L14.570312 8.359375 11.398438 8.359375 11.398438 6.398438 12.878906 6.398438C13.078125 6.398438 13.238281 6.480469 13.320312 6.601562zM8.601562 6.601562C8.71875 6.480469 8.878906 6.398438 9.039062 6.398438L10.601562 6.398438 10.601562 8.359375 7.386719 8.359375zM7.800781 12.398438C7.359375 12.398438 7 12.039062 7 11.601562 7 11.160156 7.359375 10.800781 7.800781 10.800781 8.238281 10.800781 8.601562 11.160156 8.601562 11.601562 8.601562 12.039062 8.238281 12.398438 7.800781 12.398438zM7.839844 10C7.832031 10 7.824219 10 7.816406 10 7.8125 10 7.804688 10 7.800781 10 7.058594 10 6.429688 10.511719 6.25 11.199219L5.640625 11.199219C5.519531 11.199219 5.398438 11.078125 5.398438 10.960938L5.398438 9.398438C5.398438 9.28125 5.519531 9.160156 5.640625 9.160156L6.421875 9.160156C6.472656 9.183594 6.53125 9.199219 6.601562 9.199219L15.398438 9.199219C15.46875 9.199219 15.527344 9.183594 15.578125 9.160156L16.398438 9.160156C16.519531 9.160156 16.640625 9.28125 16.640625 9.398438L16.640625 10.960938C16.640625 11.078125 16.519531 11.199219 16.398438 11.199219L15.761719 11.199219C15.558594 10.519531 15.039062 10 14.28125 10 14.265625 10 14.25 10 14.238281 10 14.222656 10 14.210938 10 14.199219 10 13.457031 10 12.828125 10.511719 12.652344 11.199219L9.398438 11.199219C9.199219 10.519531 8.601562 10 7.839844 10zM14.199219 12.398438C13.761719 12.398438 13.398438 12.039062 13.398438 11.601562 13.398438 11.160156 13.761719 10.800781 14.199219 10.800781 14.640625 10.800781 15 11.160156 15 11.601562 15 12.039062 14.640625 12.398438 14.199219 12.398438zM11 15.199219L5 15.199219C4.761719 15.199219 4.601562 15.359375 4.601562 15.601562 4.601562 15.839844 4.761719 16 5 16L11 16C11.238281 16 11.398438 15.839844 11.398438 15.601562 11.398438 15.359375 11.238281 15.199219 11 15.199219zM11 17.199219L5 17.199219C4.761719 17.199219 4.601562 17.359375 4.601562 17.601562 4.601562 17.839844 4.761719 18 5 18L11 18C11.238281 18 11.398438 17.839844 11.398438 17.601562 11.398438 17.359375 11.238281 17.199219 11 17.199219zM11 19.199219L5 19.199219C4.761719 19.199219 4.601562 19.359375 4.601562 19.601562 4.601562 19.839844 4.761719 20 5 20L11 20C11.238281 20 11.398438 19.839844 11.398438 19.601562 11.398438 19.359375 11.238281 19.199219 11 19.199219zM11 19.199219"/>
</svg>

<svg xmlns="http://www.w3.org/2000/svg" width="32" height="32" viewBox="0 0 24 24">
    <path d="M21.398 16.8v-.402c0-.53-.144-1.03-.398-1.453V2c0-.68-.52-1.2-1.2-1.2h-5.198c0-.44-.364-.8-.801-.8H8.199c-.437 0-.8.36-.8.8h-5.2C1.52.8 1 1.32 1 2v20.8c0 .68.52 1.2 1.2 1.2H23v-7.2zm-6.796 0h-.403v4.802H3.4V3.199h4c0 .442.363.801.8.801h5.602c.437 0 .8-.36.8-.8h4v10.402a2.78 2.78 0 0 0-2.8 2.796v.403zm2-.402c0-1.117.878-2 2-2 .039 0 .074.004.113.004.015 0 .027.004.039.004.016 0 .031.004.047.004.039.008.074.016.12.031a.331.331 0 0 0 .138.012c.488.113.914.406 1.222.867a.242.242 0 0 0 .059.078c.164.293.262.637.262 1v.403h-4zM19.8 1.602c.238 0 .398.16.398.398v12.094a2.804 2.804 0 0 0-.8-.383V3.199c0-.437-.36-.8-.797-.8h-4v-.797zM8.199.8h5.602v2.398H8.199zm-6 22.398c-.238 0-.398-.16-.398-.398V2c0-.238.16-.398.398-.398h5.2v.796h-4a.804.804 0 0 0-.797.801v18.403a.8.8 0 0 0 .796.796H14.2v.801zm20 0H15v-5.597h7.2zm0 0"/>
    <path d="M18.602 18.398c-.883 0-1.602.723-1.602 1.602 0 .742.512 1.371 1.2 1.55V22c0 .238.16.398.402.398.238 0 .398-.16.398-.398v-.45c.688-.179 1.2-.808 1.2-1.55 0-.879-.72-1.602-1.598-1.602zm0 2.403a.802.802 0 0 1 0-1.602.801.801 0 0 1 0 1.602zm0 0M16.36 12c.6 0 1.038-.441 1.081-1.04V9.399c0-.597-.48-1.039-1.043-1.039h-.851L14 6.2a1.273 1.273 0 0 0-1.078-.558h-1.735A.413.413 0 0 0 11 5.6a.413.413 0 0 0-.188.04H9.079c-.437 0-.84.199-1.078.558L6.453 8.36h-.812c-.602 0-1.04.48-1.04 1.04v1.562c0 .598.438 1.039 1.04 1.039h.609c.18.688.809 1.2 1.55 1.2.743 0 1.372-.512 1.548-1.2h3.304c.176.688.805 1.2 1.547 1.2.742 0 1.371-.512 1.551-1.2zm-3.04-5.398l1.25 1.757h-3.172V6.4h1.48c.2 0 .36.081.442.203zm-4.718 0a.63.63 0 0 1 .437-.204h1.563V8.36H7.387zM7.8 12.398c-.442 0-.801-.359-.801-.796 0-.442.36-.801.8-.801.438 0 .802.36.802.8a.804.804 0 0 1-.801.797zM7.84 10H7.8c-.742 0-1.371.512-1.551 1.2h-.61c-.12 0-.242-.122-.242-.24V9.399c0-.117.122-.238.243-.238h.78c.052.024.11.04.18.04h8.797a.42.42 0 0 0 .18-.04h.82c.122 0 .243.121.243.238v1.563c0 .117-.121.238-.243.238h-.636c-.203-.68-.723-1.199-1.48-1.199H14.198c-.742 0-1.37.512-1.547 1.2H9.398C9.2 10.52 8.602 10 7.84 10zm6.36 2.398c-.438 0-.802-.359-.802-.796 0-.442.364-.801.801-.801.442 0 .801.36.801.8 0 .438-.36.797-.8.797zm0 0M11 15.2H5c-.238 0-.398.16-.398.402 0 .238.16.398.398.398h6c.238 0 .398-.16.398-.398 0-.243-.16-.403-.398-.403zm0 0M11 17.2H5c-.238 0-.398.16-.398.402 0 .238.16.398.398.398h6c.238 0 .398-.16.398-.398 0-.243-.16-.403-.398-.403zm0 0M11 19.2H5c-.238 0-.398.16-.398.402 0 .238.16.398.398.398h6c.238 0 .398-.16.398-.398 0-.243-.16-.403-.398-.403zm0 0"/>
</svg>
